X: 32232
T: Phyllis' Birthday
R: reel
M: 4/4
K: Gmajor
BG~G2 Bded|B2Ad BGGE|DEGA BABd|edBG A2ed|
BG~G2 Bded|B2Ad BGGE|DEGA BABd|1 deBA G2ed:|2 deBA G4||
|:dega ~b2ag|egdc BG~G2|dega b2ag|eaag abge|
dega ~b2ag|egdc BGGE|DEGA BABd|edBA G4:|

